X:296
T:'Take Up Thy Cross', the Savior Said
%%stretchlast false
M:4/4
L:1/4
K:G clef=C1
"^I"[GBdg]2 "^V"[DFda] "^vi"[EGBg] | "^V"[DAdf] "^I¹"[B,Bdg] "^ii"[A,cea]/ [A,cfa]/ "^I"[G,dgb] | "^IV"[Cceg]3 "^vi"[EBeg] | "^V¹"[FAda] "^I"[Gdb] "^IV"[CGec'] "^I"[Gdb] | "^vi"[EBeg] "^V"[Ddfa] "^I"[Gdgb]2 | [GBdg]2 "^V¹"[FAda] "^V"[Ddfa] | "^I"[G,dgb] "^vii°¹"[A,cfa] "^vi²"[B,Beg] "^III"[B,B^df]/ "^III7"[B,A^df]/ | "^IV"[CGe]3 "^V"[Ddfa] | "^I"[G,dgb] "^ii"[A,cea] "^I¹"[B,Bdg] "^IV"[CGce] | "^vi"[EGBg] "^i"[DGda]/ "^V"[DFda]/ "^I"[G,GBg]2 |]
